X: 41168
T: Tripping To The Well
R: polka
M: 2/4
K: Gmajor
|:G/F/G/A/ B/A/G|E/F/G E/F/E/D/|GG/A/ B/c/d|B2 A/B/A/F/|
G2 BA/G/|EG ED|Bd D/E/F/G/|1 A2 G2:|2 Ad GB/c/||
|:d/e/d/B/ G>A|Bd Ad|d/e/d/B/ G>d|B2 AB/c/|
d/e/d/B/ Gd|Bd Ad|Bd D/E/F/G/|1 A2 GB/c/:|2 A2 G2||

